exports/nc-35mm-film-lut/NC_35mm_Film_Print_Rec709.cube
TITLE "NC 35mm Film Print - Rec.709"
LUT_3D_SIZE 33
DOMAIN_MIN 0.0 0.0 0.0
DOMAIN_MAX 1.0 1.0 1.0
0.0020304 0.0020304 0.0020304
0.0589244 0.0080000 0.0120843
0.0827844 0.0080000 0.0121177
0.1069962 0.0080000 0.0119607
0.1315248 0.0080000 0.0117047
0.1563530 0.0080000 0.0113893
0.1814697 0.0080000 0.0110348
0.2062905 0.0081567 0.0107995
0.2301070 0.0086597 0.0108781
0.2541694 0.0091679 0.0109575
0.2784741 0.0096812 0.0110377
0.3030173 0.0101996 0.0111187
0.3277954 0.0107229 0.0112005
0.3528048 0.0112511 0.0112831
0.3780417 0.0117841 0.0113664
0.4035027 0.0123219 0.0114504
0.4291839 0.0128643 0.0115352
0.4550856 0.0134100 0.0116185
0.4812350 0.0139491 0.0116838
0.5076391 0.0144783 0.0117264
0.5342989 0.0149965 0.0117452
0.5612156 0.0155022 0.0117388
0.5883901 0.0159943 0.0117060
0.6158234 0.0164715 0.0116457
0.6435162 0.0169321 0.0115569
0.6714691 0.0173735 0.0114384
0.6996825 0.0177965 0.0112893
0.7281568 0.0182001 0.0111087
0.7568920 0.0185835 0.0108958
0.7858879 0.0189456 0.0106497
0.8151440 0.0192856 0.0103699
0.8446598 0.0196029 0.0100558
0.8744342 0.0198966 0.0097068
0.0080000 0.0385818 0.0193474
0.0300091 0.0400366 0.0131812
0.0599973 0.0386391 0.0130967
0.0881841 0.0377465 0.0130665
0.1152113 0.0372682 0.0130689
0.1415829 0.0370570 0.0130924
0.1675861 0.0370285 0.0131305
0.1933959 0.0371309 0.0131791
0.2191243 0.0373306 0.0132357
0.2448460 0.0376049 0.0132985
0.2706122 0.0379377 0.0133662
0.2964587 0.0383176 0.0134379
0.3224112 0.0387359 0.0135130
0.3484881 0.0391863 0.0135909
0.3747151 0.0396595 0.0136630
0.4011242 0.0401444 0.0137151
0.4277275 0.0406366 0.0137453
0.4545347 0.0411321 0.0137524
0.4815538 0.0416279 0.0137348
0.5087914 0.0421209 0.0136913
0.5362533 0.0426086 0.0136206
0.5639441 0.0430887 0.0135216
0.5918677 0.0435591 0.0133931
0.6200276 0.0440179 0.0132343
0.6484263 0.0444633 0.0130441
0.6770660 0.0448937 0.0128216
0.7059484 0.0453078 0.0125662
0.7350746 0.0457042 0.0122771
0.7644455 0.0460818 0.0119539
0.7940612 0.0464395 0.0115960
0.8239216 0.0467763 0.0112030
0.8540260 0.0470915 0.0107748
0.8843736 0.0473845 0.0103112
0.0080000 0.0625976 0.0218833
0.0273634 0.0650549 0.0152942
0.0548836 0.0648060 0.0152738
0.0821535 0.0645334 0.0152784
0.1092139 0.0643004 0.0153012
0.1359369 0.0642385 0.0153377
0.1624558 0.0643079 0.0153847
0.1888640 0.0644805 0.0154401
0.2152287 0.0647355 0.0155023
0.2415990 0.0650577 0.0155700
0.2680124 0.0654350 0.0156415
0.2945143 0.0658521 0.0157005
0.3211358 0.0662985 0.0157402
0.3478977 0.0667674 0.0157588
0.3748170 0.0672528 0.0157547
0.4019077 0.0677497 0.0157264
0.4291814 0.0682539 0.0156726
0.4566479 0.0687614 0.0155918
0.4843152 0.0692691 0.0154830
0.5121905 0.0697740 0.0153449
0.5402794 0.0702733 0.0151765
0.5685869 0.0707648 0.0149769
0.5971170 0.0712464 0.0147451
0.6258730 0.0717160 0.0144805
0.6548576 0.0721721 0.0141824
0.6840727 0.0726130 0.0138502
0.7135198 0.0730373 0.0134835
0.7431998 0.0734438 0.0130819
0.7731130 0.0738315 0.0126453
0.8032592 0.0741995 0.0121734
0.8336376 0.0745468 0.0116665
0.8642471 0.0748729 0.0111246
0.8950860 0.0751773 0.0105481
0.0080000 0.0876109 0.0232746
0.0278473 0.0900649 0.0174065
0.0545366 0.0902939 0.0174265
0.0808779 0.0906906 0.0174606
0.1075070 0.0909191 0.0175060
0.1343091 0.0910727 0.0175604
0.1610312 0.0913177 0.0176223
0.1877290 0.0916366 0.0176848
0.2144553 0.0920119 0.0177315
0.2412458 0.0924323 0.0177596
0.2681289 0.0928886 0.0177671
0.2951278 0.0933731 0.0177525
0.3222615 0.0938794 0.0177140
0.3495459 0.0944018 0.0176502
0.3769945 0.0949356 0.0175597
0.4046184 0.0954766 0.0174413
0.4324271 0.0960210 0.0172938
0.4604288 0.0965655 0.0171161
0.4886303 0.0971073 0.0169073
0.5170374 0.0976436 0.0166665
0.5456547 0.0981723 0.0163929
0.5744864 0.0986910 0.0160859
0.6035356 0.0991980 0.0157449
0.6328048 0.0996915 0.0153695
0.6622958 0.1001701 0.0149595
0.6920098 0.1006325 0.0145145
0.7219475 0.1010773 0.0140346
0.7521087 0.1015037 0.0135198
0.7824931 0.1019108 0.0129704
0.8130994 0.1022980 0.0123866
0.8439261 0.1026645 0.0117690
0.8749708 0.1030102 0.0111182
0.9062309 0.1033346 0.0104351
0.0080000 0.1135143 0.0241567
0.0293129 0.1156198 0.0195649
0.0556389 0.1161842 0.0196132
0.0818208 0.1168560 0.0196703
0.1079247 0.1176145 0.0197213
0.1345125 0.1181464 0.0197565
0.1614322 0.1185521 0.0197737
0.1884019 0.1190057 0.0197708
0.2154500 0.1194980 0.0197460
0.2426001 0.1200211 0.0196977
0.2698716 0.1205685 0.0196244
0.2972812 0.1211345 0.0195245
0.3248426 0.1217141 0.0193968
0.3525679 0.1223028 0.0192401
0.3804670 0.1228969 0.0190533
0.4085485 0.1234928 0.0188355
0.4368197 0.1240875 0.0185858
0.4652869 0.1246783 0.0183034
0.4939550 0.1252627 0.0179876
0.5228286 0.1258385 0.0176380
0.5519109 0.1264037 0.0172542
0.5812048 0.1269565 0.0168358
0.6107122 0.1274955 0.0163827
0.6404345 0.1280191 0.0158949
0.6703724 0.1285262 0.0153725
0.7005260 0.1290158 0.0148157
0.7308948 0.1294870 0.0142249
0.7614776 0.1299390 0.0136006
0.7922728 0.1303713 0.0129436
0.8232782 0.1307836 0.0122547
0.8544910 0.1311755 0.0115348
0.8859076 0.1315471 0.0107851
0.9175243 0.1318982 0.0100070
0.0080000 0.1402398 0.0247650
0.0312347 0.1418205 0.0217515
0.0574451 0.1426359 0.0217760
0.0836307 0.1435205 0.0217828
0.1098299 0.1444627 0.0217700
0.1360742 0.1454528 0.0217356
0.1629093 0.1461790 0.0216779
0.1901459 0.1467577 0.0215953
0.2174966 0.1473615 0.0214863
0.2449779 0.1479846 0.0213495
0.2726036 0.1486222 0.0211839
0.3003855 0.1492698 0.0209882
0.3283338 0.1499236 0.0207616
0.3564571 0.1505800 0.0205031
0.3847630 0.1512360 0.0202120
0.4132576 0.1518888 0.0198877
0.4419463 0.1525359 0.0195297
0.4708333 0.1531751 0.0191375
0.4999224 0.1538043 0.0187110
0.5292161 0.1544217 0.0182500
0.5587166 0.1550258 0.0177544
0.5884253 0.1556152 0.0172245
0.6183428 0.1561886 0.0166605
0.6484692 0.1567451 0.0160629
0.6788040 0.1572836 0.0154322
0.7093459 0.1578037 0.0147692
0.7400933 0.1583046 0.0140748
0.7710437 0.1587860 0.0133499
0.8021943 0.1592476 0.0125958
0.8335416 0.1596895 0.0118140
0.8650814 0.1601116 0.0110058
0.8968091 0.1605142 0.0101731
0.9287194 0.1608977 0.0093177
0.0080000 0.1677193 0.0250458
0.0334201 0.1686659 0.0237652
0.0596603 0.1696787 0.0237216
0.0859460 0.1707380 0.0236548
0.1123017 0.1718360 0.0235632
0.1387480 0.1729661 0.0234453
0.1653026 0.1741225 0.0232997
0.1925253 0.1749815 0.0231253
0.2201763 0.1756866 0.0229210
0.2479788 0.1764017 0.0226857
0.2759429 0.1771230 0.0224186
0.3040770 0.1778471 0.0221191
0.3323885 0.1785710 0.0217863
0.3608835 0.1792917 0.0214200
0.3895673 0.1800070 0.0210197
0.4184442 0.1807145 0.0205852
0.4475176 0.1814122 0.0201163
0.4767902 0.1820984 0.0196132
0.5062642 0.1827715 0.0190760
0.5359406 0.1834301 0.0185051
0.5658202 0.1840730 0.0179008
0.5959029 0.1846991 0.0172639
0.6261881 0.1853076 0.0165952
0.6566744 0.1858979 0.0158954
0.6873600 0.1864693 0.0151658
0.7182425 0.1870216 0.0144077
0.7493187 0.1875545 0.0136223
0.7805849 0.1880680 0.0128114
0.8120370 0.1885621 0.0119767
0.8436699 0.1890372 0.0111202
0.8754784 0.1894937 0.0102439
0.9074564 0.1899322 0.0093501
0.9395971 0.1903533 0.0084414
0.0087645 0.1956025 0.0256285
0.0357337 0.1961538 0.0255282
0.0620896 0.1973293 0.0254016
0.0885365 0.1985354 0.0252475
0.1150911 0.1997666 0.0250646
0.1417674 0.2010181 0.0248517
0.1685779 0.2022855 0.0246079
0.1955330 0.2035649 0.0243325
0.2232231 0.2045132 0.0240245
0.2513423 0.2053105 0.0236835
0.2796354 0.2061073 0.0233091
0.3081083 0.2069007 0.0229007
0.3367661 0.2076884 0.0224584
0.3656129 0.2084681 0.0219819
0.3946520 0.2092379 0.0214714
0.4238860 0.2099960 0.0209271
0.4533167 0.2107410 0.0203494
0.4829453 0.2114713 0.0197388
0.5127723 0.2121859 0.0190959
0.5427975 0.2128837 0.0184215
0.5730201 0.2135639 0.0177168
0.6034386 0.2142260 0.0169828
0.6340510 0.2148692 0.0162208
0.6648547 0.2154934 0.0154323
0.6958464 0.2160984 0.0146189
0.7270223 0.2166841 0.0137826
0.7583778 0.2172507 0.0129252
0.7899080 0.2177985 0.0120490
0.8216073 0.2183279 0.0111564
0.8534693 0.2188396 0.0102497
0.8854873 0.2193344 0.0093318
0.9176537 0.2198131 0.0084056
0.9490807 0.2204853 0.0080000
0.0109675 0.2235786 0.0271930
0.0380768 0.2242747 0.0270017
0.0646037 0.2255866 0.0267805
0.0912527 0.2269175 0.0265284
0.1180352 0.2282630 0.0262447
0.1449613 0.2296195 0.0259285
0.1720397 0.2309837 0.0255794
0.1992779 0.2323524 0.0251970
0.2266822 0.2337230 0.0247808
0.2548843 0.2347270 0.0243307
0.2834985 0.2355903 0.0238468
0.3122986 0.2364451 0.0233291
0.3412879 0.2372895 0.0227779
0.3704686 0.2381219 0.0221936
0.3998424 0.2389406 0.0215768
0.4294103 0.2397445 0.0209281
0.4591727 0.2405323 0.0202485
0.4891290 0.2413031 0.0195390
0.5192784 0.2420561 0.0188008
0.5496192 0.2427907 0.0180352
0.5801493 0.2435064 0.0172439
0.6108657 0.2442029 0.0164284
0.6417651 0.2448801 0.0155908
0.6728433 0.2455380 0.0147330
0.7040958 0.2461767 0.0138573
0.7355173 0.2467967 0.0129661
0.7671019 0.2473985 0.0120620
0.7988433 0.2479826 0.0111477
0.8307343 0.2485498 0.0102263
0.8627673 0.2491013 0.0093007
0.8949341 0.2496380 0.0083744
0.9264067 0.2503493 0.0080000
0.9573947 0.2511899 0.0080000
0.0130826 0.2521910 0.0284473
0.0403744 0.2530126 0.0281554
0.0671091 0.2544400 0.0278312
0.0939875 0.2558770 0.0274741
0.1210177 0.2573204 0.0270838
0.1482067 0.2587673 0.0266599
0.1755607 0.2602151 0.0262024
0.2030847 0.2616612 0.0257111
0.2307831 0.2631037 0.0251864
0.2586593 0.2645404 0.0246285
0.2873939 0.2655735 0.0240378
0.3165094 0.2664815 0.0234150
0.3458151 0.2673754 0.0227608
0.3753120 0.2682538 0.0220761
0.4049999 0.2691157 0.0213621
0.4348785 0.2699600 0.0206200
0.4649464 0.2707861 0.0198512
0.4952020 0.2715934 0.0190573
0.5256427 0.2723814 0.0182401
0.5562656 0.2731499 0.0174015
0.5870669 0.2738988 0.0165436
0.6180425 0.2746282 0.0156688
0.6491874 0.2753383 0.0147795
0.6804963 0.2760294 0.0138783
0.7119631 0.2767021 0.0129681
0.7435811 0.2773571 0.0120519
0.7753430 0.2779953 0.0111329
0.8072411 0.2786175 0.0102144
0.8392669 0.2792251 0.0092999
0.8714113 0.2798193 0.0083933
0.9030008 0.2805484 0.0080000
0.9341388 0.2813925 0.0080000
0.9653313 0.2822402 0.0080000
0.0150654 0.2814153 0.0293677
0.0425669 0.2823471 0.0289697
0.0695345 0.2838719 0.0285382
0.0966609 0.2853989 0.0280733
0.1239517 0.2869255 0.0275750
0.1514118 0.2884493 0.0270434
0.1790451 0.2899684 0.0264789
0.2068549 0.2914806 0.0258821
0.2348436 0.2929845 0.0252535
0.2630130 0.2944783 0.0245940
0.2913643 0.2959608 0.0239045
0.3206318 0.2970018 0.0231863
0.3502381 0.2979378 0.0224405
0.3800321 0.2988555 0.0216688
0.4100126 0.2997544 0.0208726
0.4401774 0.3006339 0.0200540
0.4705240 0.3014935 0.0192148
0.5010491 0.3023331 0.0183573
0.5317488 0.3031526 0.0174837
0.5626188 0.3039521 0.0165967
0.5936538 0.3047319 0.0156989
0.6248483 0.3054924 0.0147932
0.6561960 0.3062342 0.0138827
0.6876901 0.3069580 0.0129706
0.7193230 0.3076647 0.0120604
0.7510868 0.3083553 0.0111557
0.7829727 0.3090310 0.0102602
0.8149716 0.3096933 0.0093778
0.8470736 0.3103435 0.0085127
0.8788822 0.3110647 0.0080000
0.9101609 0.3119100 0.0080000
0.9414881 0.3127583 0.0080000
0.9728639 0.3136084 0.0080000
0.0168791 0.3112250 0.0299437
0.0446085 0.3122533 0.0294384
0.0718261 0.3138597 0.0289002
0.0992128 0.3154619 0.0283294
0.1267723 0.3170580 0.0277265
0.1545075 0.3186462 0.0270924
0.1824206 0.3202248 0.0264278
0.2105133 0.3217923 0.0257338
0.2387863 0.3233474 0.0250116
0.2672399 0.3248890 0.0242625
0.2958738 0.3264160 0.0234881
0.3246869 0.3279276 0.0226901
0.3544701 0.3289602 0.0218704
0.3845409 0.3299106 0.0210309
0.4147907 0.3308404 0.0201741
0.4452160 0.3317495 0.0193022
0.4758126 0.3326379 0.0184179
0.5065760 0.3335056 0.0175239
0.5375009 0.3343530 0.0166232
0.5685813 0.3351805 0.0157189
0.5998109 0.3359888 0.0148143
0.6311825 0.3367786 0.0139129
0.6626885 0.3375508 0.0130184
0.6943206 0.3383066 0.0121345
0.7260700 0.3390472 0.0112653
0.7579272 0.3397738 0.0104150
0.7898822 0.3404882 0.0095879
0.8219244 0.3411920 0.0087884
0.8540427 0.3418869 0.0080213
0.8854739 0.3427268 0.0080000
0.9169262 0.3435734 0.0080000
0.9484218 0.3444230 0.0080000
0.9799608 0.3452806 0.0080000
0.0184969 0.3415900 0.0301799
0.0464664 0.3427022 0.0295713
0.0739456 0.3443753 0.0289319
0.1016003 0.3460391 0.0282624
0.1294326 0.3476919 0.0275642
0.1574438 0.3493323 0.0268382
0.1856344 0.3509591 0.0260861
0.2140046 0.3525712 0.0253094
0.2425537 0.3541676 0.0245098
0.2712805 0.3557475 0.0236893
0.3001832 0.3573103 0.0228500
0.3292595 0.3588556 0.0219942
0.3585063 0.3603829 0.0211244
0.3887704 0.3613951 0.0202432
0.4192646 0.3623498 0.0193534
0.4499227 0.3632831 0.0184582
0.4807391 0.3641953 0.0175605
0.5117079 0.3650868 0.0166639
0.5428223 0.3659584 0.0157719
0.5740750 0.3668108 0.0148881
0.6054582 0.3676450 0.0140165
0.6369635 0.3684622 0.0131611
0.6685817 0.3692635 0.0123262
0.7003033 0.3700504 0.0115160
0.7321179 0.3708245 0.0107353
0.7640149 0.3715875 0.0099886
0.7959829 0.3723413 0.0092808
0.8280100 0.3730879 0.0086170
0.8600809 0.3738348 0.0080075
0.8916601 0.3746880 0.0080000
0.9232711 0.3755507 0.0080000
0.9549196 0.3764206 0.0080000
0.9866044 0.3772967 0.0080000
0.0199034 0.3724764 0.0300980
0.0481216 0.3736597 0.0293956
0.0758699 0.3753856 0.0286663
0.1037969 0.3770977 0.0279114
0.1319032 0.3787947 0.0271327
0.1601884 0.3804756 0.0263318
0.1886518 0.3821396 0.0255109
0.2172920 0.3837857 0.0246721
0.2461068 0.3854136 0.0238178
0.2750938 0.3870226 0.0229505
0.3042498 0.3886125 0.0220728
0.3335709 0.3901832 0.0211878
0.3630529 0.3917346 0.0202984
0.3926907 0.3932668 0.0194080
0.4233838 0.3942513 0.0185198
0.4542454 0.3952032 0.0176377
0.4852497 0.3961342 0.0167652
0.5163892 0.3970452 0.0159064
0.5476560 0.3979371 0.0150653
0.5790412 0.3988112 0.0142463
0.6105358 0.3996687 0.0134538
0.6421298 0.4005110 0.0126924
0.6738128 0.4013398 0.0119668
0.7055740 0.4021568 0.0112820
0.7374018 0.4029649 0.0106440
0.7692838 0.4037720 0.0100650
0.8012041 0.4045817 0.0095520
0.8331461 0.4053970 0.0091113
0.8650929 0.4062210 0.0087491
0.8970271 0.4070569 0.0084717
0.9289607 0.4079004 0.0082514
0.9609240 0.4087427 0.0080436
0.9920000 0.4097612 0.0087754
0.0210965 0.4038452 0.0297386
0.0495696 0.4050864 0.0289581
0.0775915 0.4068516 0.0281564
0.1057923 0.4085992 0.0273354
0.1341712 0.4103282 0.0264975
0.1627263 0.4120380 0.0256450
0.1914556 0.4137281 0.0247806
0.2203561 0.4153979 0.0239069
0.2494246 0.4170473 0.0230271
0.2786570 0.4186761 0.0221441
0.3080487 0.4202844 0.0212613
0.3375947 0.4218722 0.0203822
0.3672893 0.4234400 0.0195104
0.3971260 0.4249881 0.0186498
0.4271172 0.4265060 0.0178043
0.4581514 0.4274709 0.0169782
0.4893100 0.4284157 0.0161758
0.5205843 0.4293416 0.0154015
0.5519648 0.4302499 0.0146601
0.5834414 0.4311421 0.0139562
0.6150037 0.4320199 0.0132950
0.6466430 0.4328877 0.0126851
0.6783483 0.4337512 0.0121373
0.7101041 0.4346132 0.0116577
0.7418939 0.4354767 0.0112526
0.7737012 0.4363446 0.0109282
0.8055120 0.4372192 0.0106864
0.8373526 0.4380929 0.0104738
0.8692283 0.4389634 0.0102734
0.9011329 0.4398308 0.0100859
0.9330605 0.4406954 0.0099116
0.9650052 0.4415576 0.0097511
0.9920000 0.4433362 0.0151127
0.0220889 0.4356523 0.0291630
0.0508219 0.4369373 0.0283263
0.0791193 0.4387285 0.0274761
0.1075931 0.4404987 0.0266149
0.1362410 0.4422476 0.0257457
0.1650600 0.4439747 0.0248715
0.1940463 0.4456798 0.0239953
0.2231959 0.4473629 0.0231207
0.2525040 0.4490239 0.0222511
0.2819652 0.4506631 0.0213903
0.3115737 0.4522808 0.0205421
0.3413230 0.4538775 0.0197106
0.3712060 0.4554538 0.0189000
0.4012151 0.4570105 0.0181147
0.4313422 0.4585484 0.0173593
0.4616278 0.4600398 0.0166385
0.4929060 0.4609930 0.0159571
0.5242784 0.4619293 0.0153206
0.5557414 0.4628538 0.0147405
0.5872827 0.4637699 0.0142246
0.6188868 0.4646804 0.0137792
0.6505377 0.4655880 0.0134104
0.6822190 0.4664956 0.0131246
0.7139266 0.4674033 0.0129052
0.7456794 0.4683056 0.0127000
0.7774724 0.4692025 0.0125070
0.8092994 0.4700945 0.0123269
0.8411542 0.4709817 0.0121602
0.8730310 0.4718646 0.0120073
0.9049238 0.4727432 0.0118687
0.9368269 0.4736178 0.0117445
0.9687347 0.4744886 0.0116353
0.9920000 0.4768670 0.0220174
0.0229092 0.4678474 0.0284537
0.0519064 0.4691610 0.0275894
0.0804792 0.4709647 0.0267212
0.1092233 0.4727449 0.0258524
0.1381350 0.4745015 0.0249864
0.1672097 0.4762342 0.0241269
0.1964427 0.4779433 0.0232775
0.2258283 0.4796290 0.0224423
0.2553604 0.4812915 0.0216253
0.2850325 0.4829315 0.0208308
0.3148371 0.4845496 0.0200634
0.3447666 0.4861466 0.0193275
0.3748126 0.4877234 0.0186279
0.4049662 0.4892811 0.0179695
0.4352225 0.4908218 0.0173599
0.4655800 0.4923497 0.0168104
0.4960955 0.4938256 0.0163273
0.5275610 0.4947805 0.0159167
0.5590863 0.4957281 0.0155850
0.5906558 0.4966712 0.0153374
0.6222743 0.4976081 0.0151277
0.6539444 0.4985373 0.0149298
0.6856596 0.4994592 0.0147443
0.7174137 0.5003741 0.0145717
0.7492005 0.5012825 0.0144125
0.7810140 0.5021844 0.0142671
0.8128482 0.5030803 0.0141359
0.8446974 0.5039703 0.0140193
0.8765559 0.5048546 0.0139175
0.9084181 0.5057334 0.0138308
0.9402787 0.5066068 0.0137593
0.9721324 0.5074749 0.0137032
0.9920000 0.5102957 0.0295255
0.0236034 0.5003740 0.0277154
0.0528688 0.5016993 0.0268586
0.0817151 0.5035023 0.0260096
0.1107250 0.5052796 0.0251723
0.1398934 0.5070315 0.0243506
0.1692145 0.5087581 0.0235487
0.1986821 0.5104599 0.0227710
0.2282891 0.5121374 0.0220220
0.2580283 0.5137912 0.0213062
0.2878917 0.5154223 0.0206285
0.3178710 0.5170316 0.0199940
0.3479701 0.5186216 0.0194134
0.3781828 0.5201948 0.0188951
0.4084952 0.5217534 0.0184454
0.4388929 0.5232995 0.0180705
0.4693611 0.5248355 0.0177768
0.4998876 0.5263631 0.0175564
0.5305584 0.5278327 0.0173539
0.5621506 0.5287872 0.0171633
0.5937928 0.5297325 0.0169852
0.6254787 0.5306688 0.0168200
0.6572022 0.5315966 0.0166682
0.6889570 0.5325162 0.0165303
0.7207372 0.5334278 0.0164066
0.7525369 0.5343317 0.0162975
0.7843503 0.5352281 0.0162031
0.8161719 0.5361172 0.0161237
0.8479961 0.5369991 0.0160594
0.8798177 0.5378740 0.0160105
0.9116313 0.5387419 0.0159768
0.9434320 0.5396029 0.0159585
0.9752148 0.5404569 0.0159555
0.9920000 0.5435644 0.0376717
0.0242353 0.5331687 0.0270749
0.0537730 0.5344873 0.0262673
0.0828894 0.5362760 0.0254811
0.1121591 0.5380376 0.0247207
0.1415757 0.5397723 0.0239907
0.1711322 0.5414808 0.0232957
0.2008208 0.5431638 0.0226406
0.2306382 0.5448222 0.0220319
0.2605926 0.5464580 0.0214811
0.2906728 0.5480731 0.0209949
0.3208652 0.5496695 0.0205794
0.3511558 0.5512492 0.0202409
0.3815299 0.5528144 0.0199858
0.4119758 0.5543678 0.0197791
0.4424873 0.5559107 0.0195838
0.4730578 0.5574433 0.0194005
0.5036812 0.5589659 0.0192296
0.5343512 0.5604787 0.0190719
0.5651623 0.5619233 0.0189275
0.5968630 0.5628590 0.0187970
0.6285936 0.5637849 0.0186807
0.6603481 0.5647013 0.0185789
0.6921208 0.5656083 0.0184919
0.7239059 0.5665063 0.0184197
0.7556978 0.5673954 0.0183627
0.7874911 0.5682757 0.0183208
0.8192806 0.5691474 0.0182941
0.8510610 0.5700104 0.0182826
0.8828275 0.5708649 0.0182862
0.9145750 0.5717108 0.0183049
0.9462990 0.5725482 0.0183384
0.9779948 0.5733768 0.0183865
0.9920000 0.5766149 0.0464894
0.0248874 0.5661611 0.0266802
0.0547018 0.5674530 0.0259698
0.0840833 0.5692138 0.0252963
0.1136054 0.5709463 0.0246644
0.1432760 0.5726509 0.0240835
0.1730979 0.5743290 0.0235633
0.2030583 0.5759822 0.0231099
0.2331436 0.5776125 0.0227294
0.2633402 0.5792219 0.0224281
0.2936330 0.5808130 0.0222050
0.3240042 0.5823905 0.0220054
0.3544456 0.5839556 0.0218173
0.3849508 0.5855087 0.0216412
0.4155133 0.5870500 0.0214777
0.4461269 0.5885798 0.0213272
0.4767855 0.5900984 0.0211903
0.5074829 0.5916060 0.0210671
0.5382133 0.5931028 0.0209582
0.5689707 0.5945890 0.0208637
0.5998698 0.5959944 0.0207839
0.6316225 0.5969000 0.0207189
0.6633861 0.5977948 0.0206689
0.6951552 0.5986793 0.0206340
0.7269243 0.5995534 0.0206142
0.7586882 0.6004173 0.0206094
0.7904419 0.6012710 0.0206196
0.8221803 0.6021146 0.0206446
0.8538988 0.6029480 0.0206843
0.8855925 0.6037712 0.0207383
0.9172571 0.6045841 0.0208065
0.9488881 0.6053866 0.0208885
0.9804815 0.6061785 0.0209840
0.9920000 0.6093897 0.0560111
0.0256646 0.5992736 0.0267009
0.0557924 0.6005154 0.0261492
0.0854944 0.6022320 0.0256604
0.1153476 0.6039196 0.0252404
0.1453389 0.6055801 0.0248956
0.1754549 0.6072153 0.0246323
0.2056746 0.6088301 0.0244279
0.2359758 0.6104303 0.0242354
0.2663518 0.6120162 0.0240544
0.2967961 0.6135883 0.0238855
0.3273023 0.6151468 0.0237293
0.3578639 0.6166921 0.0235861
0.3884748 0.6182245 0.0234564
0.4191288 0.6197442 0.0233406
0.4498198 0.6212514 0.0232389
0.4805421 0.6227464 0.0231516
0.5112896 0.6242293 0.0230790
0.5420569 0.6257003 0.0230212
0.5728382 0.6271595 0.0229782
0.6036283 0.6286070 0.0229502
0.6345647 0.6299592 0.0229371
0.6663158 0.6308227 0.0229389
0.6980602 0.6316744 0.0229555
0.7297929 0.6325145 0.0229867
0.7615091 0.6333429 0.0230324
0.7932040 0.6341595 0.0230923
0.8248730 0.6349645 0.0231661
0.8565116 0.6357575 0.0232535
0.8881156 0.6365387 0.0233540
0.9196808 0.6373076 0.0234672
0.9512033 0.6380643 0.0235926
0.9826791 0.6388084 0.0237298
0.9920000 0.6418311 0.0662686
0.0269461 0.6323999 0.0273867
0.0574599 0.6335697 0.0270784
0.0875076 0.6352273 0.0268509
0.1176576 0.6368649 0.0266544
0.1478935 0.6384862 0.0264689
0.1782087 0.6400914 0.0262951
0.2085967 0.6416811 0.0261334
0.2390509 0.6432555 0.0259843
0.2695648 0.6448149 0.0258484
0.3001323 0.6463597 0.0257260
0.3307470 0.6478902 0.0256174
0.3614029 0.6494065 0.0255229
0.3920939 0.6509090 0.0254428
0.4228142 0.6523978 0.0253773
0.4535579 0.6538731 0.0253264
0.4843195 0.6553350 0.0252903
0.5150934 0.6567837 0.0252691
0.5458743 0.6582192 0.0252627
0.5766569 0.6596416 0.0252710
0.6074360 0.6610509 0.0252939
0.6382068 0.6624471 0.0253313
0.6691321 0.6637321 0.0253829
0.7008312 0.6645411 0.0254484
0.7325077 0.6653370 0.0255277
0.7641568 0.6661196 0.0256202
0.7957743 0.6668889 0.0257256
0.8273559 0.6676448 0.0258434
0.8588975 0.6683870 0.0259732
0.8903952 0.6691153 0.0261144
0.9218452 0.6698295 0.0262664
0.9532438 0.6705294 0.0264286
0.9845876 0.6712146 0.0266003
0.9920000 0.6738820 0.0772943
0.0289674 0.6654459 0.0288845
0.0597603 0.6665574 0.0287060
0.0900192 0.6681806 0.0285392
0.1203553 0.6697864 0.0283847
0.1507619 0.6713752 0.0282428
0.1812325 0.6729474 0.0281141
0.2117607 0.6745033 0.0279989
0.2423403 0.6760432 0.0278974
0.2729650 0.6775673 0.0278101
0.3036287 0.6790760 0.0277371
0.3343255 0.6805694 0.0276785
0.3650495 0.6820477 0.0276346
0.3957949 0.6835112 0.0276054
0.4265563 0.6849599 0.0275908
0.4573280 0.6863940 0.0275909
0.4881048 0.6878135 0.0276056
0.5188815 0.6892185 0.0276347
0.5496530 0.6906090 0.0276781
0.5804145 0.6919849 0.0277355
0.6111610 0.6933463 0.0278066
0.6418880 0.6946930 0.0278911
0.6725910 0.6960249 0.0279887
0.7034592 0.6972288 0.0280989
0.7350599 0.6979706 0.0282211
0.7666232 0.6986973 0.0283551
0.7981453 0.6994090 0.0285001
0.8296221 0.7001054 0.0286555
0.8610500 0.7007862 0.0288209
0.8924253 0.7014512 0.0289954
0.9237447 0.7021001 0.0291784
0.9550048 0.7027324 0.0293691
0.9862024 0.7033479 0.0295668
0.9920000 0.7054855 0.0891222
0.0314489 0.6984396 0.0306395
0.0624380 0.6995052 0.0305048
0.0928695 0.7010887 0.0303832
0.1233626 0.7026544 0.0302750
0.1539111 0.7042023 0.0301807
0.1845085 0.7057330 0.0301005
0.2151488 0.7072466 0.0300344
0.2458259 0.7087434 0.0299828
0.2765338 0.7102236 0.0299457
0.3072667 0.7116874 0.0299232
0.3380189 0.7131351 0.0299152
0.3687850 0.7145666 0.0299218
0.3995593 0.7159821 0.0299427
0.4303367 0.7173817 0.0299779
0.4611121 0.7187655 0.0300271
0.4918803 0.7201333 0.0300902
0.5226365 0.7214853 0.0301667
0.5533761 0.7228213 0.0302564
0.5840944 0.7241413 0.0303589
0.6147870 0.7254451 0.0304736
0.6454496 0.7267326 0.0306002
0.6760781 0.7280036 0.0307381
0.7066685 0.7292579 0.0308868
0.7374365 0.7303668 0.0310456
0.7688958 0.7310278 0.0312139
0.8003049 0.7316717 0.0313910
0.8316600 0.7322985 0.0315762
0.8629580 0.7329076 0.0317688
0.8941955 0.7334989 0.0319679
0.9253693 0.7340718 0.0321728
0.9564766 0.7346261 0.0323827
0.9875143 0.7351612 0.0325967
0.9920000 0.7365848 0.1017907
0.0343139 0.7313493 0.0325545
0.0654619 0.7323670 0.0324672
0.0960360 0.7339029 0.0323939
0.1266567 0.7354202 0.0323348
