exports/nc-35mm-film-lut/NC_35mm_Film_Print_Rec709.cube
TITLE "NC 35mm Film Print - Rec.709"
LUT_3D_SIZE 9
DOMAIN_MIN 0.0 0.0 0.0
DOMAIN_MAX 1.0 1.0 1.0
0.0020304 0.0020304 0.0020304
0.1315248 0.0080000 0.0117047
0.2301070 0.0086597 0.0108781
0.3277954 0.0107229 0.0112005
0.4291839 0.0128643 0.0115352
0.5342989 0.0149965 0.0117452
0.6435162 0.0169321 0.0115569
0.7568920 0.0185835 0.0108958
0.8744342 0.0198966 0.0097068
0.0080000 0.1135143 0.0241567
0.1079247 0.1176145 0.0197213
0.2154500 0.1194980 0.0197460
0.3248426 0.1217141 0.0193968
0.4368197 0.1240875 0.0185858
0.5519109 0.1264037 0.0172542
0.6703724 0.1285262 0.0153725
0.7922728 0.1303713 0.0129436
0.9175243 0.1318982 0.0100070
0.0109675 0.2235786 0.0271930
0.1180352 0.2282630 0.0262447
0.2266822 0.2337230 0.0247808
0.3412879 0.2372895 0.0227779
0.4591727 0.2405323 0.0202485
0.5801493 0.2435064 0.0172439
0.7040958 0.2461767 0.0138573
0.8307343 0.2485498 0.0102263
0.9573947 0.2511899 0.0080000
0.0184969 0.3415900 0.0301799
0.1294326 0.3476919 0.0275642
0.2425537 0.3541676 0.0245098
0.3585063 0.3603829 0.0211244
0.4807391 0.3641953 0.0175605
0.6054582 0.3676450 0.0140165
0.7321179 0.3708245 0.0107353
0.8600809 0.3738348 0.0080075
0.9866044 0.3772967 0.0080000
0.0229092 0.4678474 0.0284537
0.1381350 0.4745015 0.0249864
0.2553604 0.4812915 0.0216253
0.3748126 0.4877234 0.0186279
0.4960955 0.4938256 0.0163273
0.6222743 0.4976081 0.0151277
0.7492005 0.5012825 0.0144125
0.8765559 0.5048546 0.0139175
0.9920000 0.5102957 0.0295255
0.0256646 0.5992736 0.0267009
0.1453389 0.6055801 0.0248956
0.2663518 0.6120162 0.0240544
0.3884748 0.6182245 0.0234564
0.5112896 0.6242293 0.0230790
0.6345647 0.6299592 0.0229371
0.7615091 0.6333429 0.0230324
0.8881156 0.6365387 0.0233540
0.9920000 0.6418311 0.0662686
0.0343139 0.7313493 0.0325545
0.1573177 0.7369191 0.0322901
0.2802472 0.7427363 0.0322551
0.4033636 0.7482747 0.0324469
0.5263364 0.7535376 0.0328498
0.6488718 0.7585199 0.0334364
0.7709579 0.7630649 0.0341685
0.8956911 0.7652128 0.0349989
0.9920000 0.7671231 0.1153454
0.0489244 0.8612578 0.0418929
0.1728442 0.8657911 0.0423677
0.2958865 0.8704715 0.0430060
0.4183548 0.8747934 0.0437664
0.5400085 0.8787418 0.0445991
0.6606422 0.8822940 0.0454483
0.7800824 0.8854205 0.0462542
0.8985133 0.8878933 0.0469556
0.9920000 0.8824860 0.1800406
0.0662694 0.9865245 0.0533587
0.1892414 0.9895766 0.0541814
0.3121218 0.9920000 0.0571195
0.4375254 0.9920000 0.0685545
0.5593735 0.9920000 0.0815466
0.6772955 0.9920000 0.0963787
0.7908515 0.9920000 0.1135627
0.8994273 0.9920000 0.1341481
0.9920000 0.9831401 0.2766517
0.0080000 0.0154098 0.1225609
0.1169015 0.0080000 0.1290020
0.2215404 0.0080000 0.1211355
0.3237086 0.0096652 0.1173172
0.4269326 0.0118583 0.1159170
0.5335426 0.0139495 0.1156313
0.6440040 0.0158056 0.1156815
0.7584620 0.0173590 0.1157063
0.8769644 0.0185538 0.1154969
0.0080000 0.1150218 0.1214234
0.1067520 0.1176262 0.1237228
0.2149620 0.1193148 0.1236628
0.3249255 0.1216292 0.1237587
0.4375469 0.1240163 0.1237685
0.5532966 0.1262933 0.1235093
0.6723946 0.1283362 0.1228740
0.7948798 0.1300757 0.1218108
0.9206360 0.1314908 0.1203167
0.0080000 0.2262827 0.1320838
0.1171516 0.2290330 0.1318421
0.2267631 0.2340290 0.1315312
0.3418383 0.2375457 0.1308308
0.4602015 0.2407020 0.1297046
0.5816215 0.2435725 0.1281641
0.7059426 0.2461358 0.1262675
0.8328541 0.2484116 0.1241194
0.9618920 0.2504595 0.1218704
0.0141667 0.3451755 0.1388023
0.1283868 0.3487338 0.1376203
0.2424014 0.3546931 0.1360453
0.3587285 0.3607987 0.1341508
0.4812819 0.3644962 0.1320568
0.6062316 0.3678406 0.1299291
0.7329934 0.3709406 0.1279779
0.8608909 0.3739292 0.1264649
0.9890003 0.3770717 0.1257289
0.0180735 0.4717059 0.1420923
0.1368130 0.4755509 0.1400756
0.2548083 0.4818381 0.1380972
0.3745152 0.4881482 0.1363817
0.4959771 0.4941823 0.1352235
0.6222478 0.4979214 0.1347913
0.7492351 0.5015511 0.1345016
0.8765722 0.5050842 0.1343124
0.9920000 0.5107647 0.1471614
0.0207584 0.6030987 0.1449429
0.1441685 0.6064810 0.1441844
0.2659042 0.6124386 0.1438911
0.3881942 0.6185681 0.1436681
0.5110920 0.6244998 0.1435485
0.6343593 0.6301673 0.1435535
0.7612380 0.6334817 0.1436919
0.8877135 0.6366075 0.1439598
0.9920000 0.6423854 0.1794542
0.0300807 0.7349352 0.1528685
0.1565286 0.7375992 0.1528154
0.2800043 0.7429255 0.1528840
0.4031324 0.7483663 0.1530787
0.5260450 0.7535316 0.1533914
0.6484563 0.7584136 0.1538026
0.7703498 0.7628606 0.1542819
0.8948503 0.7648977 0.1547901
0.9920000 0.7676072 0.2223609
0.0450637 0.8644772 0.1624819
0.1723092 0.8660383 0.1628316
0.2956730 0.8702591 0.1632631
0.4180060 0.8744552 0.1637429
0.5394688 0.8782719 0.1642292
0.6598634 0.8816843 0.1646735
0.7790228 0.8846609 0.1650233
0.8971218 0.8869809 0.1652238
0.9920000 0.8828273 0.2785139
0.0625077 0.9892125 0.1731888
0.1886811 0.9892351 0.1736422
0.3103033 0.9918428 0.1740290
0.4352548 0.9920000 0.1823738
0.5570553 0.9920000 0.1923775
0.6750148 0.9920000 0.2037132
0.7887783 0.9920000 0.2166512
0.8978931 0.9920000 0.2317728
0.9920000 0.9835264 0.3620128
0.0080000 0.0180916 0.1944090
0.1139126 0.0080000 0.2432958
0.2147211 0.0080000 0.2246520
0.3206134 0.0086430 0.2218387
0.4253061 0.0108511 0.2197764
0.5332055 0.0128815 0.2195862
0.6447852 0.0146443 0.2202249
0.7602407 0.0160786 0.2211599
0.8796391 0.0171358 0.2220805
0.0080000 0.1169768 0.2151275
0.1060236 0.1192328 0.2264139
0.2146051 0.1186909 0.2276625
0.3251197 0.1207038 0.2286391
0.4383600 0.1230625 0.2296614
0.5547412 0.1252628 0.2306040
0.6744469 0.1272061 0.2313009
0.7974858 0.1288382 0.2316558
0.9237120 0.1301444 0.2316279
0.0080000 0.2283397 0.2356120
0.1137124 0.2321048 0.2381406
0.2265932 0.2346138 0.2391104
0.3423754 0.2377501 0.2398345
0.4612035 0.2408272 0.2401518
0.5830477 0.2436009 0.2400881
0.7077190 0.2460586 0.2396685
0.8348737 0.2482427 0.2389653
0.9640156 0.2502256 0.2380971
0.0097637 0.3487639 0.2483956
0.1243516 0.3522696 0.2486761
0.2418953 0.3554439 0.2485825
0.3588970 0.3611722 0.2481555
0.4817548 0.3647577 0.2474829
0.6069139 0.3680035 0.2466983
0.7337516 0.3710348 0.2459791
0.8615494 0.3740320 0.2455337
0.9894626 0.3772208 0.2455373
0.0131809 0.4755400 0.2566924
0.1322877 0.4792711 0.2560674
0.2539554 0.4825651 0.2553881
0.3741847 0.4885361 0.2548437
0.4958170 0.4945209 0.2546522
0.6221981 0.4982161 0.2547605
0.7492343 0.5018034 0.2548146
0.8765419 0.5052987 0.2548540
0.9920000 0.5112162 0.2647356
0.0159202 0.6068795 0.2638249
0.1397900 0.6101352 0.2638796
0.2651712 0.6130913 0.2639999
0.3879179 0.6188838 0.2640722
0.5108852 0.6247440 0.2641356
0.6341323 0.6303499 0.2642181
0.7609337 0.6335952 0.2643355
0.8872680 0.6366502 0.2644918
0.9920000 0.6429032 0.2924474
0.0258848 0.7384855 0.2733444
0.1524943 0.7410453 0.2734301
0.2794964 0.7433148 0.2735352
0.4028958 0.7484235 0.2736715
0.5257353 0.7534909 0.2738386
0.6480109 0.7582716 0.2740247
0.7697013 0.7626186 0.2742073
0.8939600 0.7645424 0.2743547
0.9920000 0.7680325 0.3290994
0.0412250 0.8676517 0.2830098
0.1684599 0.8690869 0.2831814
0.2952429 0.8701802 0.2833590
0.4176335 0.8740727 0.2835167
0.5388939 0.8777556 0.2836200
0.6590393 0.8810254 0.2836277
0.7779091 0.8838487 0.2834936
0.8956680 0.8860123 0.2831690
0.9920000 0.8830887 0.3766355
0.0587429 0.9918447 0.2928023
0.1847503 0.9917109 0.2928521
0.3096662 0.9911448 0.2927847
0.4325527 0.9920000 0.2964555
0.5542689 0.9920000 0.3034945
0.6722389 0.9920000 0.3113323
0.7862127 0.9920000 0.3199369
0.8959640 0.9920000 0.3292305
0.9920000 0.9838899 0.4462682
0.0080000 0.0205292 0.2702582
0.1093802 0.0093831 0.3490366
0.2141999 0.0084998 0.3310663
0.3178390 0.0080000 0.3249603
0.4241810 0.0098321 0.3234705
0.5332140 0.0117865 0.3238147
0.6458129 0.0134446 0.3253150
0.7621951 0.0147515 0.3273408
0.8824329 0.0156656 0.3295138
0.0080000 0.1190582 0.3087669
0.1053947 0.1209177 0.3291386
0.2143536 0.1205110 0.3310686
0.3254041 0.1200042 0.3340524
0.4392418 0.1220840 0.3363367
0.5562300 0.1241950 0.3385860
0.6765164 0.1260242 0.3406829
0.8000786 0.1275312 0.3424929
0.9267406 0.1287146 0.3439413
0.0080000 0.2306207 0.3375712
0.1133349 0.2343510 0.3441821
0.2266485 0.2368412 0.3464896
0.3428929 0.2372094 0.3497373
0.4621722 0.2399906 0.3515988
0.5844216 0.2426484 0.3530115
0.7094185 0.2450055 0.3540431
0.8367867 0.2471077 0.3547343
0.9659976 0.2490400 0.3551716
0.0080000 0.3516239 0.3581728
0.1204001 0.3557533 0.3606803
0.2382513 0.3588636 0.3620762
0.3589290 0.3616014 0.3630996
0.4821562 0.3649814 0.3638042
0.6075035 0.3681367 0.3642770
0.7343916 0.3711141 0.3646769
0.8620569 0.3741498 0.3651199
0.9898577 0.3773653 0.3656437
0.0082360 0.4793482 0.3722267
0.1277101 0.4829647 0.3729221
0.2496796 0.4861536 0.3734457
0.3737204 0.4889961 0.3739316
0.4956256 0.4948444 0.3745017
0.6221259 0.4984931 0.3749943
0.7491988 0.5020398 0.3753128
0.8764658 0.5054985 0.3755063
0.9920000 0.5116465 0.3822531
0.0111607 0.6106176 0.3832546
0.1354361 0.6137645 0.3838889
0.2610406 0.6166425 0.3843408
0.3875055 0.6192923 0.3846310
0.5106688 0.6249623 0.3848052
0.6338835 0.6305071 0.3848983
0.7605961 0.6336833 0.3849339
0.8867790 0.6366665 0.3849234
0.9920000 0.6433788 0.4052743
0.0217260 0.7420002 0.3939457
0.1484823 0.7444564 0.3941002
0.2755472 0.7466256 0.3941775
0.4025652 0.7485214 0.3941969
0.5254061 0.7534154 0.3941658
0.6475345 0.7580934 0.3940800
0.7690116 0.7623384 0.3939245
0.8930192 0.7641462 0.3936748
0.9920000 0.7683896 0.4356267
0.0374068 0.8707811 0.4034494
0.1646163 0.8720895 0.4033930
0.2913051 0.8730537 0.4032722
0.4172124 0.8736651 0.4030686
0.5382823 0.8771922 0.4027548
0.6581686 0.8803164 0.4022961
0.7767400 0.8829830 0.4016520
0.8941506 0.8849865 0.4007792
0.9920000 0.8832525 0.4745539
0.0619575 0.9920000 0.4155898
0.1867244 0.9920000 0.4154316
0.3091897 0.9920000 0.4141630
0.4293459 0.9920000 0.4109922
0.5509225 0.9920000 0.4151416
0.6688523 0.9920000 0.4195498
0.7830115 0.9920000 0.4238160
0.8934936 0.9920000 0.4269702
0.9920000 0.9842215 0.5294810
0.0080000 0.0228375 0.3489402
0.1056508 0.0111553 0.4495188
0.2113334 0.0102877 0.4327132
0.3164406 0.0096238 0.4274489
0.4234604 0.0088950 0.4272294
0.5335094 0.0106596 0.4284793
0.6470477 0.0122029 0.4310566
0.7642965 0.0133752 0.4343191
0.8853232 0.0141420 0.4378435
0.0080000 0.1212335 0.4026167
0.1048429 0.1226642 0.4321156
0.2141862 0.1223563 0.4350021
0.3257606 0.1218558 0.4391336
0.4401768 0.1211729 0.4438150
0.5577496 0.1230868 0.4474944
0.6785908 0.1247962 0.4510423
0.8026468 0.1261769 0.4543304
0.9297108 0.1272405 0.4572520
0.0080000 0.2329689 0.4398179
0.1129395 0.2366046 0.4510953
0.2266860 0.2390625 0.4548095
0.3433850 0.2393611 0.4595124
0.4631019 0.2391330 0.4640383
0.5857372 0.2416444 0.4669241
0.7110351 0.2438902 0.4693687
0.8385868 0.2459039 0.4713914
0.9678319 0.2477837 0.4730468
0.0080000 0.3540978 0.4669758
0.1196851 0.3583229 0.4725249
0.2379423 0.3613375 0.4753503
0.3589790 0.3639788 0.4777402
0.4824852 0.3641884 0.4809805
0.6079993 0.3672659 0.4826129
0.7349144 0.3702204 0.4839872
0.8624198 0.3733217 0.4851238
0.9901869 0.3765509 0.4860072
0.0080000 0.4818511 0.4873031
0.1232110 0.4865975 0.4905504
0.2454314 0.4896974 0.4921850
0.3697012 0.4924890 0.4935411
0.4954242 0.4951490 0.4946609
0.6220318 0.4987531 0.4954527
0.7491291 0.5022610 0.4959584
0.8763446 0.5056838 0.4962339
0.9920000 0.5120516 0.4997229
0.0080000 0.6138751 0.5030519
0.1311081 0.6173689 0.5041710
0.2569229 0.6201697 0.5048748
0.3835113 0.6227475 0.5053079
0.5104427 0.6251551 0.5055232
0.6336126 0.6306390 0.5055631
0.7602249 0.6337457 0.5054587
0.8862464 0.6366559 0.5052292
0.9920000 0.6438059 0.5179683
0.0176040 0.7454793 0.5146367
0.1444920 0.7478322 0.5147929
0.2716057 0.7499010 0.5147811
0.3985970 0.7516962 0.5146280
0.5250563 0.7533048 0.5143489
0.6470261 0.7578785 0.5139470
0.7682796 0.7620191 0.5134145
0.8920269 0.7637080 0.5127337
0.9920000 0.7686673 0.5420242
0.0336073 0.8738648 0.5237750
0.1607768 0.8750455 0.5234431
0.2873581 0.8758788 0.5229821
0.4130990 0.8763536 0.5223806
0.5376322 0.8765809 0.5216177
0.6572498 0.8795563 0.5206644
0.7755141 0.8820627 0.5194858
0.8925685 0.8839024 0.5180425
0.9920000 0.8832961 0.5724658
0.0661588 0.9920000 0.5361685
0.1900285 0.9920000 0.5360242
0.3114169 0.9920000 0.5350269
0.4302736 0.9920000 0.5325186
0.5469003 0.9920000 0.5276339
0.6647029 0.9920000 0.5287885
0.7789723 0.9920000 0.5288601
0.8902448 0.9920000 0.5256975
0.9920000 0.9845051 0.6117874
0.0080000 0.0250747 0.4298506
0.1028863 0.0128975 0.5485801
0.2091142 0.0120611 0.5337350
0.3150853 0.0113937 0.5294446
0.4230694 0.0105914 0.5302153
0.5340441 0.0094964 0.5337107
0.6484565 0.0109161 0.5375360
0.7665198 0.0119475 0.5421529
0.8882894 0.0125639 0.5471074
0.0080000 0.1234818 0.4968751
0.1043504 0.1244590 0.5355162
0.2140851 0.1242193 0.5395730
0.3261737 0.1237070 0.5449982
0.4411517 0.1229666 0.5510649
0.5592878 0.1219355 0.5573604
0.6806589 0.1235209 0.5623952
0.8051796 0.1247756 0.5671707
0.9326118 0.1257239 0.5715496
0.0080000 0.2353745 0.5424319
0.1125218 0.2388605 0.5589216
0.2267008 0.2412745 0.5640948
0.3438467 0.2414965 0.5702774
0.4639874 0.2411755 0.5762721
0.5869892 0.2405954 0.5818103
0.7125634 0.2427357 0.5856172
0.8402687 0.2446712 0.5888962
0.9695129 0.2465129 0.5916701
0.0080000 0.3566155 0.5760588
0.1189293 0.3608704 0.5853507
0.2375873 0.3637871 0.5895697
0.3589720 0.3663335 0.5932659
0.4827410 0.3664219 0.5977112
0.6084006 0.3663511 0.6016484
0.7353213 0.3693015 0.6038170
0.8627083 0.3724513 0.6054381
0.9904516 0.3756763 0.6065876
0.0080000 0.4843982 0.6013456
0.1221770 0.4892476 0.6077162
0.2447358 0.4922425 0.6103048
0.3693166 0.4949783 0.6123064
0.4952145 0.4975906 0.6137931
0.6219161 0.4980044 0.6160966
0.7490259 0.5014901 0.6167147
0.8761788 0.5048947 0.6170030
0.9920000 0.5114880 0.6171385
0.0080000 0.6163369 0.6216444
0.1269250 0.6209163 0.6246443
0.2528784 0.6236565 0.6255428
0.3795179 0.6261788 0.6260674
0.5065160 0.6284858 0.6262569
0.6333192 0.6307458 0.6261824
0.7598198 0.6337823 0.6258828
0.8856698 0.6366180 0.6253849
0.9920000 0.6441773 0.6305710
0.0135182 0.7489225 0.6353831
0.1405229 0.7511725 0.6354767
0.2676712 0.7531402 0.6353170
0.3946228 0.7548337 0.6349389
0.5210764 0.7562513 0.6343648
0.6464843 0.7576262 0.6336053
0.7675042 0.7616600 0.6326593
0.8909823 0.7632269 0.6315153
0.9920000 0.7688527 0.6483929
0.0298249 0.8769025 0.6439618
0.1569398 0.8779541 0.6433100
0.2834005 0.8786545 0.6424695
0.4089633 0.8789900 0.6414357
0.5334209 0.8789390 0.6401934
0.6562815 0.8787441 0.6387192
0.7742303 0.8810866 0.6369825
0.8909205 0.8827587 0.6349476
0.9920000 0.8831906 0.6706346
0.0709554 0.9920000 0.6541214
0.1939432 0.9920000 0.6538544
0.3142694 0.9920000 0.6529961
0.4318359 0.9920000 0.6510361
0.5467010 0.9920000 0.6470238
0.6605096 0.9916241 0.6406299
0.7747126 0.9915490 0.6376933
0.8872073 0.9908021 0.6343392
0.9920000 0.9847069 0.6934943
0.0080000 0.0272729 0.5126397
0.1007576 0.0146268 0.6470967
0.2073729 0.0138287 0.6345710
0.3141003 0.0131418 0.6316384
0.4229494 0.0122635 0.6336770
0.5347788 0.0110608 0.6384831
0.6500108 0.0095814 0.6448250
0.7688427 0.0104669 0.6508903
0.8913128 0.0109308 0.6573356
0.0080000 0.1257877 0.5916812
0.1039023 0.1262912 0.6394765
0.2140353 0.1260938 0.6448713
0.3266299 0.1255540 0.6517069
0.4421542 0.1247463 0.6592376
0.5608337 0.1235737 0.6670484
0.6827104 0.1221979 0.6747513
0.8076670 0.1233283 0.6810103
0.9354339 0.1241672 0.6868182
0.0080000 0.2378291 0.6454752
0.1120781 0.2411146 0.6676942
0.2266884 0.2434744 0.6743634
0.3442732 0.2436141 0.6820363
0.4648238 0.2431988 0.6894858
0.5881727 0.2423930 0.6964668
0.7139984 0.2415449 0.7027553
0.8418272 0.2434138 0.7072033
0.9710355 0.2452332 0.7109838
0.0080000 0.3591720 0.6854476
0.1181332 0.3633945 0.6991444
0.2371864 0.3662122 0.7047087
0.3589082 0.3686663 0.7096386
0.4829234 0.3686803 0.7151756
0.6087080 0.3683864 0.7201017
0.7356137 0.3683932 0.7240701
0.8629443 0.3715742 0.7260097
0.9906530 0.3747972 0.7273458
0.0080000 0.4869748 0.7155300
0.1211317 0.4918654 0.7255853
0.2440579 0.4947666 0.7289559
0.3689318 0.4974596 0.7314061
0.4949968 0.5000298 0.7331422
0.6217795 0.5002586 0.7356446
0.7488895 0.5006684 0.7375461
0.8759691 0.5040381 0.7377806
0.9920000 0.5108175 0.7345482
0.0080000 0.6188822 0.7391681
0.1263575 0.6234601 0.7440525
0.2525000 0.6261229 0.7450481
0.3792361 0.6285737 0.7455739
0.5061854 0.6308288 0.7456972
0.6330027 0.6328559 0.7454993
0.7593803 0.6328397 0.7461804
0.8850489 0.6356203 0.7453673
0.9920000 0.6435784 0.7430952
0.0095890 0.7522968 0.7561092
0.1366262 0.7544626 0.7561028
0.2637430 0.7563429 0.7557580
0.3906421 0.7579332 0.7551048
0.5169781 0.7592435 0.7541915
0.6424964 0.7602603 0.7530353
0.7666843 0.7612602 0.7516416
0.8898841 0.7627020 0.7500045
0.9920000 0.7689303 0.7548573
0.0260577 0.8798936 0.7639864
0.1531034 0.8808147 0.7629726
0.2794308 0.8813799 0.7617159
0.4048041 0.8815733 0.7602174
0.5290237 0.8813710 0.7584676
0.6519217 0.8807422 0.7564475
0.7728871 0.8800537 0.7541303
0.8892054 0.8815545 0.7514832
0.9920000 0.8828971 0.7694169
0.0763870 0.9920000 0.7693002
0.1985162 0.9920000 0.7687513
0.3178054 0.9920000 0.7678701
0.4341044 0.9920000 0.7663064
0.5473798 0.9920000 0.7633870
0.6578700 0.9920000 0.7576596
0.7726692 0.9896866 0.7526486
0.8847905 0.9887198 0.7485598
0.9920000 0.9847453 0.7753869
0.0080000 0.0294515 0.5970867
0.0990683 0.0163531 0.7455820
0.2059924 0.0155962 0.7355161
0.3134130 0.0148694 0.7342304
0.4230534 0.0139112 0.7377427
0.5356808 0.0126061 0.7440057
0.6516861 0.0108706 0.7518888
0.7712454 0.0089321 0.7605704
0.8943764 0.0092425 0.7685512
0.0080000 0.1281400 0.6871337
0.1034865 0.1281518 0.7441065
0.2140240 0.1279743 0.7509712
0.3271171 0.1273932 0.7593097
0.4431736 0.1265099 0.7683653
0.5623771 0.1252426 0.7777036
0.6847356 0.1235562 0.7869978
0.8100995 0.1218361 0.7958403
0.9381674 0.1225732 0.8030364
0.0080000 0.2403260 0.7489951
0.1116049 0.2433629 0.7774390
0.2266451 0.2456600 0.7856267
0.3446606 0.2457130 0.7947879
0.4656070 0.2452031 0.8036657
0.5892834 0.2443119 0.8119828
0.7153355 0.2431039 0.8196060
0.8432576 0.2421365 0.8262617
0.9723953 0.2439506 0.8309253
0.0080000 0.3617629 0.7951604
0.1172975 0.3658943 0.8138869
0.2367402 0.3686130 0.8207359
0.3587877 0.3709785 0.8268151
0.4830328 0.3709262 0.8333347
0.6089305 0.3706095 0.8390053
0.7357940 0.3703768 0.8434709
0.8631288 0.3706913 0.8467980
0.9907925 0.3739142 0.8482435
0.0080000 0.4895780 0.8298563
0.1200801 0.4944523 0.8440973
0.2434046 0.4972734 0.8480438
0.3685527 0.4999277 0.8507691
0.4947715 0.5024557 0.8526742
0.6216220 0.5026535 0.8552386
0.7487203 0.5027279 0.8572335
0.8757159 0.5031671 0.8585351
0.9920000 0.5101063 0.8519776
0.0080000 0.6214403 0.8566614
0.1258238 0.6259772 0.8636132
0.2521394 0.6285638 0.8646342
0.3789608 0.6309425 0.8650935
0.5059143 0.6331270 0.8650667
0.6326626 0.6350895 0.8646383
0.7589060 0.6346501 0.8651665
0.8843833 0.6345188 0.8651544
0.9920000 0.6428093 0.8556723
0.0092872 0.7546552 0.8755658
0.1364080 0.7567186 0.8753773
0.2635078 0.7585025 0.8747844
0.3902636 0.7600093 0.8738365
0.5163917 0.7612314 0.8725699
0.6416465 0.7621527 0.8710080
0.7658187 0.7626579 0.8692161
0.8887315 0.7612321 0.8681867
0.9920000 0.7680066 0.8615238
0.0223350 0.8828289 0.8838155
0.1492660 0.8836263 0.8824113
0.2754472 0.8840541 0.8807037
0.4006198 0.8841023 0.8787103
0.5245917 0.8837452 0.8764264
0.6472013 0.8829503 0.8738367
0.7683128 0.8816805 0.8709176
0.8874222 0.8802884 0.8676380
0.9920000 0.8823638 0.8693040
0.0824983 0.9920000 0.8815424
0.2038023 0.9920000 0.8805241
0.3220926 0.9920000 0.8794204
0.4371643 0.9920000 0.8780500
0.5488815 0.9920000 0.8760487
0.6572713 0.9920000 0.8725931
0.7673780 0.9904899 0.8671689
0.8823120 0.9865655 0.8622950
0.9920000 0.9843535 0.8600810
0.0080000 0.0316226 0.6830415
0.0976937 0.0180827 0.8443524
0.2049017 0.0173587 0.8368051
0.3129673 0.0165769 0.8373749
0.4233432 0.0155346 0.8425156
0.5367223 0.0141233 0.8503528
0.6534607 0.0122662 0.8598053
0.7737099 0.0099165 0.8701712
0.8961985 0.0080000 0.8795381
0.0080000 0.1305299 0.7833025
0.1030925 0.1300328 0.8494955
0.2140400 0.1298562 0.8579338
0.3276250 0.1292218 0.8678475
0.4441999 0.1282558 0.8784727
0.5639087 0.1268907 0.8893576
0.6867254 0.1251047 0.9001521
0.8124681 0.1229194 0.9105752
0.9408034 0.1209450 0.9201775
0.0080000 0.2428594 0.8530274
0.1110993 0.2456023 0.8881750
0.2265675 0.2478293 0.8978905
0.3450051 0.2477925 0.9085250
0.4663330 0.2471888 0.9187922
0.5903171 0.2462170 0.9283829
0.7165705 0.2449545 0.9371325
0.8445559 0.2435228 0.9449199
0.9735801 0.2426838 0.9513975
0.0080000 0.3643845 0.9052096
0.1164235 0.3683691 0.9295540
0.2362497 0.3709899 0.9376152
0.3586114 0.3732717 0.9447470
0.4830697 0.3731623 0.9521284
0.6090722 0.3728491 0.9583327
0.7359059 0.3726788 0.9629955
0.8632630 0.3725625 0.9666349
0.9908712 0.3730281 0.9692436
0.0080000 0.4922048 0.9443206
0.1190337 0.4970103 0.9631799
0.2427815 0.4997665 0.9674708
0.3681801 0.5023814 0.9703538
0.4945388 0.5048681 0.9723511
0.6214441 0.5050355 0.9749056
0.7485187 0.5050736 0.9768053
0.8754195 0.5050226 0.9781149
0.9920000 0.5093484 0.9694559
0.0080000 0.6240067 0.9741320
0.1253232 0.6284679 0.9832894
0.2517960 0.6309791 0.9842664
0.3786875 0.6332858 0.9845958
0.5056314 0.6353992 0.9843611
0.6322981 0.6372956 0.9836504
0.7583962 0.6367795 0.9838368
0.8836725 0.6360573 0.9836340
0.9920000 0.6419547 0.9683834
0.0137769 0.7558638 0.9920000
0.1399009 0.7580980 0.9920000
0.2653968 0.7601620 0.9920000
0.3903290 0.7619483 0.9920000
0.5159393 0.7631351 0.9906643
0.6409882 0.7639393 0.9886387
0.7649063 0.7643254 0.9863364
0.8875233 0.7622220 0.9849839
0.9920000 0.7668159 0.9687057
0.0461706 0.8786428 0.9920000
0.1676822 0.8807026 0.9920000
0.2878892 0.8824986 0.9920000
0.4068869 0.8839179 0.9920000
0.5249600 0.8847930 0.9920000
0.6457826 0.8841826 0.9897014
0.7664966 0.8827481 0.9861826
0.8855696 0.8806643 0.9823443
0.9920000 0.8806580 0.9709675
0.0893400 0.9920000 0.9906690
0.2098639 0.9920000 0.9889589
0.3272103 0.9920000 0.9873847
0.4411186 0.9920000 0.9859359
0.5513425 0.9920000 0.9845801
0.6576608 0.9920000 0.9832320
0.7616478 0.9915523 0.9812285
0.8767176 0.9869572 0.9755191
0.9894152 0.9821170 0.9691752
