exports/nc-35mm-film-lut/NC_35mm_Film_Print_Rec709.cube
TITLE "NC 35mm Film Print - Rec.709"
LUT_3D_SIZE 5
DOMAIN_MIN 0.0 0.0 0.0
DOMAIN_MAX 1.0 1.0 1.0
0.0020304 0.0020304 0.0020304
0.2301070 0.0086597 0.0108781
0.4291839 0.0128643 0.0115352
0.6435162 0.0169321 0.0115569
0.8744342 0.0198966 0.0097068
0.0109675 0.2235786 0.0271930
0.2266822 0.2337230 0.0247808
0.4591727 0.2405323 0.0202485
0.7040958 0.2461767 0.0138573
0.9573947 0.2511899 0.0080000
0.0229092 0.4678474 0.0284537
0.2553604 0.4812915 0.0216253
0.4960955 0.4938256 0.0163273
0.7492005 0.5012825 0.0144125
0.9920000 0.5102957 0.0295255
0.0343139 0.7313493 0.0325545
0.2802472 0.7427363 0.0322551
0.5263364 0.7535376 0.0328498
0.7709579 0.7630649 0.0341685
0.9920000 0.7671231 0.1153454
0.0662694 0.9865245 0.0533587
0.3121218 0.9920000 0.0571195
0.5593735 0.9920000 0.0815466
0.7908515 0.9920000 0.1135627
0.9920000 0.9831401 0.2766517
0.0080000 0.0180916 0.1944090
0.2147211 0.0080000 0.2246520
0.4253061 0.0108511 0.2197764
0.6447852 0.0146443 0.2202249
0.8796391 0.0171358 0.2220805
0.0080000 0.2283397 0.2356120
0.2265932 0.2346138 0.2391104
0.4612035 0.2408272 0.2401518
0.7077190 0.2460586 0.2396685
0.9640156 0.2502256 0.2380971
0.0131809 0.4755400 0.2566924
0.2539554 0.4825651 0.2553881
0.4958170 0.4945209 0.2546522
0.7492343 0.5018034 0.2548146
0.9920000 0.5112162 0.2647356
0.0258848 0.7384855 0.2733444
0.2794964 0.7433148 0.2735352
0.5257353 0.7534909 0.2738386
0.7697013 0.7626186 0.2742073
0.9920000 0.7680325 0.3290994
0.0587429 0.9918447 0.2928023
0.3096662 0.9911448 0.2927847
0.5542689 0.9920000 0.3034945
0.7862127 0.9920000 0.3199369
0.9920000 0.9838899 0.4462682
0.0080000 0.0228375 0.3489402
0.2113334 0.0102877 0.4327132
0.4234604 0.0088950 0.4272294
0.6470477 0.0122029 0.4310566
0.8853232 0.0141420 0.4378435
0.0080000 0.2329689 0.4398179
0.2266860 0.2390625 0.4548095
0.4631019 0.2391330 0.4640383
0.7110351 0.2438902 0.4693687
0.9678319 0.2477837 0.4730468
0.0080000 0.4818511 0.4873031
0.2454314 0.4896974 0.4921850
0.4954242 0.4951490 0.4946609
0.7491291 0.5022610 0.4959584
0.9920000 0.5120516 0.4997229
0.0176040 0.7454793 0.5146367
0.2716057 0.7499010 0.5147811
0.5250563 0.7533048 0.5143489
0.7682796 0.7620191 0.5134145
0.9920000 0.7686673 0.5420242
0.0661588 0.9920000 0.5361685
0.3114169 0.9920000 0.5350269
0.5469003 0.9920000 0.5276339
0.7789723 0.9920000 0.5288601
0.9920000 0.9845051 0.6117874
0.0080000 0.0272729 0.5126397
0.2073729 0.0138287 0.6345710
0.4229494 0.0122635 0.6336770
0.6500108 0.0095814 0.6448250
0.8913128 0.0109308 0.6573356
0.0080000 0.2378291 0.6454752
0.2266884 0.2434744 0.6743634
0.4648238 0.2431988 0.6894858
0.7139984 0.2415449 0.7027553
0.9710355 0.2452332 0.7109838
0.0080000 0.4869748 0.7155300
0.2440579 0.4947666 0.7289559
0.4949968 0.5000298 0.7331422
0.7488895 0.5006684 0.7375461
0.9920000 0.5108175 0.7345482
0.0095890 0.7522968 0.7561092
0.2637430 0.7563429 0.7557580
0.5169781 0.7592435 0.7541915
0.7666843 0.7612602 0.7516416
0.9920000 0.7689303 0.7548573
0.0763870 0.9920000 0.7693002
0.3178054 0.9920000 0.7678701
0.5473798 0.9920000 0.7633870
0.7726692 0.9896866 0.7526486
0.9920000 0.9847453 0.7753869
0.0080000 0.0316226 0.6830415
0.2049017 0.0173587 0.8368051
0.4233432 0.0155346 0.8425156
0.6534607 0.0122662 0.8598053
0.8961985 0.0080000 0.8795381
0.0080000 0.2428594 0.8530274
0.2265675 0.2478293 0.8978905
0.4663330 0.2471888 0.9187922
0.7165705 0.2449545 0.9371325
0.9735801 0.2426838 0.9513975
0.0080000 0.4922048 0.9443206
0.2427815 0.4997665 0.9674708
0.4945388 0.5048681 0.9723511
0.7485187 0.5050736 0.9768053
0.9920000 0.5093484 0.9694559
0.0137769 0.7558638 0.9920000
0.2653968 0.7601620 0.9920000
0.5159393 0.7631351 0.9906643
0.7649063 0.7643254 0.9863364
0.9920000 0.7668159 0.9687057
0.0893400 0.9920000 0.9906690
0.3272103 0.9920000 0.9873847
0.5513425 0.9920000 0.9845801
0.7616478 0.9915523 0.9812285
0.9894152 0.9821170 0.9691752
